app/public/img/auditre.svg

<svg clip-rule="evenodd" fill-rule="evenodd" stroke-linejoin="round" stroke-miterlimit="2" viewBox="0 0 1694 630" xmlns="http://www.w3.org/2000/svg"><g fill="#162b52"><path d="m1018.52 553.102-359.68-207.653-359.68 207.653v415.324l359.68 207.664 359.68-207.664zm299.16 524.288v63.75l-55.22 31.89-188.73-108.96-304.453 175.78 188.723 108.95-110.441 63.77-188.719-108.96-188.723 108.96-110.441-63.77 188.722-108.95-304.457-175.78-188.718 108.96-55.223-31.89v-63.75l188.723-108.964v-351.551l-188.723 108.953v-127.527l188.723-108.957v-217.922l110.437-63.762v217.926l304.461-175.785v-217.922l55.219-31.867 55.223 31.867v217.922l304.457 175.785v-217.926l110.44 63.762v217.922l188.72 108.957v127.527l-188.72-108.953v351.551z" fill-rule="nonzero" transform="matrix(.445514 0 0 -.445514 -.00018 629.32004)"/><path d="m69.33 0c-.913 0-1.507-.457-1.78-1.37l-4.11-13.43c-.187-.367-.417-.55-.69-.55h-33.7c-.273 0-.503.183-.69.55l-3.97 13.43c-.273.913-.867 1.37-1.78 1.37h-17.4c-.553 0-.967-.16-1.24-.48s-.317-.8-.13-1.44l29.59-92.62c.273-.913.867-1.37 1.78-1.37h21.51c.913 0 1.51.457 1.79 1.37l29.59 92.62c.093.187.14.417.14.69 0 .82-.503 1.23-1.51 1.23zm-36.04-31.1c-.087.547.097.82.55.82h24.12c.547 0 .73-.273.55-.82l-12.34-40.7c-.087-.36-.223-.52-.41-.48-.18.047-.317.207-.41.48z" fill-rule="nonzero" transform="matrix(1.92115 0 0 1.92115 205.10282 382.87104)"/><text font-family="'HelveticaNeue-Medium', 'Helvetica Neue', sans-serif" font-size="280" font-weight="500" transform="translate(-237.69418 -77.37506)" x="906.045" y="465.612">AuditRe</text></g></svg>

<svg width="100%" height="100%" viewBox="0 0 1694 630" version="1.1" xmlns="http://www.w3.org/2000/svg" xmlns:xlink="http://www.w3.org/1999/xlink" xml:space="preserve" xmlns:serif="http://www.serif.com/" fill-rule="evenodd" clip-rule="evenodd" stroke-linejoin="round" stroke-miterlimit="2"><g><g><g><path d="M1018.52,553.102L658.84,345.449L299.16,553.102L299.16,968.426L658.84,1176.09L1018.52,968.426L1018.52,553.102ZM1317.68,1077.39L1317.68,1141.14L1262.46,1173.03L1073.73,1064.07L769.277,1239.85L958,1348.8L847.559,1412.57L658.84,1303.61L470.117,1412.57L359.676,1348.8L548.398,1239.85L243.941,1064.07L55.223,1173.03L-0,1141.14L-0,1077.39L188.723,968.426L188.723,616.875L-0,725.828L-0,598.301L188.723,489.344L188.723,271.422L299.16,207.66L299.16,425.586L603.621,249.801L603.621,31.879L658.84,0.012L714.063,31.879L714.063,249.801L1018.52,425.586L1018.52,207.66L1128.96,271.422L1128.96,489.344L1317.68,598.301L1317.68,725.828L1128.96,616.875L1128.96,968.426L1317.68,1077.39Z" fill="rgb(22,43,82)" fill-rule="nonzero" transform="matrix(1,0,0,1,-4.03718,-5.77596) matrix(1,0,0,1,384,0) matrix(0.445514,0,0,-0.445514,-379.963,635.096)"/></g><g><path d="M69.33,0C68.417,0 67.823,-0.457 67.55,-1.37L63.44,-14.8C63.253,-15.167 63.023,-15.35 62.75,-15.35L29.05,-15.35C28.777,-15.35 28.547,-15.167 28.36,-14.8L24.39,-1.37C24.117,-0.457 23.523,-0 22.61,-0L5.21,-0C4.657,-0 4.243,-0.16 3.97,-0.48C3.697,-0.8 3.653,-1.28 3.84,-1.92L33.43,-94.54C33.703,-95.453 34.297,-95.91 35.21,-95.91L56.72,-95.91C57.633,-95.91 58.23,-95.453 58.51,-94.54L88.1,-1.92C88.193,-1.733 88.24,-1.503 88.24,-1.23C88.24,-0.41 87.737,-0 86.73,-0L69.33,0ZM33.29,-31.1C33.203,-30.553 33.387,-30.28 33.84,-30.28L57.96,-30.28C58.507,-30.28 58.69,-30.553 58.51,-31.1L46.17,-71.8C46.083,-72.16 45.947,-72.32 45.76,-72.28C45.58,-72.233 45.443,-72.073 45.35,-71.8L33.29,-31.1Z" fill="rgb(22,43,82)" fill-rule="nonzero" transform="matrix(1,0,0,1,-4.03718,-5.77596) matrix(1,0,0,1,384,0) matrix(1.92115,0,0,1.92115,-174.86,388.647)"/></g><g><text x="906.045" y="465.612" font-family="'HelveticaNeue-Medium', 'Helvetica Neue', sans-serif" font-weight="500" font-size="280px" fill="rgb(22,43,82)" transform="matrix(1,0,0,1,-4.03718,-5.77596) matrix(1,0,0,1,384,0) matrix(1,0,0,1,-617.657,-71.5991)">AuditRe</text></g></g></g></svg>
